X: 11422
M: 3/4
L: 1/8
K: D
|:!p!\
(D4 F2) | (E4 G2) | (F4 A2) | (G4 B2) |\
(D4 F2) | (E4 G2) | (F4 A2) | (G4 B2) |\
|:!f!\
f6 | (3(DFA) (3(dfa) (3(fed) | e6 | (3A,CE (3(Ace) (3(aec) |\
{e}d4 c2 | {c}B4 A2 | {e}d4 c2 | {c}B4 A2 |\
fEFA df | (fe) e3 a | ({g}fe/d/) c2 TB2 | A6 |\
c6 | d6 | fA {A}G2 F2 | TF2 E2 "^D.C."z2 :|


